X: 23
T:La chandelle
R:Bourre  3 temps
C:Trad.
O:France
A:Centre
S:80 airs  danser du centre France - La Chavanne - 1991
S:29
Z:Transcrit et/ou corrig par Michel BELLON - 2005-05-15
Z:Pour toute observation mailto:galouvielle@free.fr
M:3/8
L:1/8
K:C
G/2A/2B/2 |: c/2B/2c/2d/2c/2d/2 | ABc | BB/2A/2B/2c/2 | B>GA/2B/2 | c/2B/2c/2d/2c/2d/2 | ABc | dc/2B/2c/2d/2 |1 c>GA/2B/2 :|2 c3 |:
d/2c/2d/2e/2^f/2d/2 | edc | d/2c/2B/2c/2B/2A/2 | d2 B/2c/2 | d/2c/2d/2e/2^f/2d/2 | edc | d/2c/2B/2d/2c/2B/2 |1 c3 :|2 c3/2 |]
%%footer $D   Galouvielle-MBe 2005 \nBourre  3 temps France
